icons/biome.svg

<!--
  - The MIT License (MIT)
  -
  - Copyright (c) 2015-2024 Elior "Mallowigi" Boukhobza
  -
  - Permission is hereby granted, free of charge, to any person obtaining a copy
  - of this software and associated documentation files (the "Software"), to deal
  - in the Software without restriction, including without limitation the rights
  - to use, copy, modify, merge, publish, distribute, sublicense, and/or sell
  - copies of the Software, and to permit persons to whom the Software is
  - furnished to do so, subject to the following conditions:
  -
  - The above copyright notice and this permission notice shall be included in all
  - copies or substantial portions of the Software.
  -
  - THE SOFTWARE IS PROVIDED "AS IS", WITHOUT WARRANTY OF ANY KIND, EXPRESS OR
  - IMPLIED, INCLUDING BUT NOT LIMITED TO THE WARRANTIES OF MERCHANTABILITY,
  - FITNESS FOR A PARTICULAR PURPOSE AND NONINFRINGEMENT. IN NO EVENT SHALL THE
  - AUTHORS OR COPYRIGHT HOLDERS BE LIABLE FOR ANY CLAIM, DAMAGES OR OTHER
  - LIABILITY, WHETHER IN AN ACTION OF CONTRACT, TORT OR OTHERWISE, ARISING FROM,
  - OUT OF OR IN CONNECTION WITH THE SOFTWARE OR THE USE OR OTHER DEALINGS IN THE
  - SOFTWARE.
  -
  -->
<svg width="16px" height="16px"  viewBox="0 0 74 74" xmlns="http://www.w3.org/2000/svg">
  <path fill="#42A5F5" data-iconColor="Biome"
        d="M36.9998 9L22.7448 33.69C28.1538 32.0224 33.9728 31.7752 39.6138 33.1057L44.4315 34.2429L39.8987 53.4629L35.074 52.3257C29.1447 50.927 23.446 54.0417 21.038 59.0108L16.5785 56.8533C19.9819 49.8242 28.0025 45.5683 36.2145 47.5057L38.474 37.9267C30.3802 36.0186 21.85 37.9177 15.329 43.0797C8.8086 48.2404 5 56.1077 5 64.4237L69 64.4244L36.9998 9Z"/>
</svg>

<svg xmlns="http://www.w3.org/2000/svg" viewBox="0 0 74 74"><path fill="#42a5f5" d="M37 9 22.745 33.69a32.2 32.2 0 0 1 16.869-.584l4.818 1.137-4.533 19.22-4.825-1.137c-5.93-1.399-11.628 1.716-14.036 6.685l-4.46-2.158c3.404-7.029 11.425-11.285 19.637-9.347l2.259-9.58A27.23 27.23 0 0 0 5 64.424l64 .001z" data-iconColor="Biome"/></svg>
